!!!COM: Corelli, Arcangelo
!!!OTL: 
!!!ONM: Opus 3, No. 1
!!!OMV: 3
!!!CDT: 1653/2/17/-1713/1/8/
!!!OCY: Italia
**kern	**kern	**kern	**kern
*clefC	*clefC	*clefG	*clefG
*k[b-]	*k[b-]	*k[b-]	*k[b-]
*F:	*F:	*F:	*F:
*M3/4	*M3/4	*M3/4	*M3/4
=1	=1	=1	=1
2F	2F	4.aa	4.ccc
.	.	8bb-	8ddd
4G	4G	4gg	4bb-
=2	=2	=2	=2
4.A	4.A	4.ff	4.aa
8G	8G	8gg	8bb-
4F	4F	4aa	4ccc
=3	=3	=3	=3
4G	4G	4gg	4bb-
4.A	4.A	2ff	2aa
8B-	8B-	.	.
=4	=4	=4	=4
2.c	2.c	2.ee	2.gg
=5	=5	=5	=5
2A	2A	4.ff	4.aa
.	.	8gg	8bb-
4AA	4AA	4aa	4ccc
=6	=6	=6	=6
2BB-	2BB-	4dd	2ddd
.	.	4ee	.
4AA	4AA	[4ff	4ccc
=7	=7	=7	=7
4BB-	4BB-	4ff]	8bb-
.	.	.	8aa
2C	2C	4.ff	2gg
.	.	8ee	.
=8	=8	=8	=8
2.FF	2.FF	2.ff	2.ff
=9	=9	=9	=9
2F	2F	4.ccc	8aa
.	.	.	8ff
.	.	.	8aa
.	.	8aa	8ccc
4r	4r	8ff	8aa
.	.	8dd	8ff
=10	=10	=10	=10
2C	2C	4.ee	8gg
.	.	.	8ccc
.	.	.	8gg
.	.	8gg	8ee
4r	4r	8ee	8cc
.	.	8cc	8ee
=11	=11	=11	=11
4D	4D	4a	8ff
.	.	.	8aa
2GG	2GG	2b	8ff
.	.	.	8dd
.	.	.	8b
.	.	.	8gg
=12	=12	=12	=12
2C	2C	4.cc	8ee
.	.	.	8gg
.	.	.	8ee
.	.	8ee	8cc
4r	4r	8gg	8ee
.	.	8ee	8gg
=13	=13	=13	=13
2F	2F	4.cc	8aa
.	.	.	8ff
.	.	.	8aa
.	.	8aa	8ff
4r	4r	8ff	8dd
.	.	8a	8aa
=14	=14	=14	=14
2F	2F	4.dd	8bb
.	.	.	8gg
.	.	.	8aa
.	.	8gg	8bb
4E	4E	8cc	8ccc
.	.	8ee	8gg
=15	=15	=15	=15
4F	4F	8dd	8ff
.	.	8cc	8ee
4G	4G	4.cc	2dd
4GG	4GG	.	.
.	.	8b	.
=16	=16	=16	=16
4.C	4.C	2cc	2cc
8D	8D	.	.
4BB-	4BB-	4r	4r
=17	=17	=17	=17
2AA	2AA	4.aa	4.ff
.	.	8bb-	8gg
4r	4r	4ccc	4aa
=18	=18	=18	=18
8B-	8B-	2ff	2dd
8A	8A	.	.
8B-	8B-	.	.
8c	8c	.	.
8B-	8B-	4r	4r
8A	8A	.	.
=19	=19	=19	=19
2G	2G	4.bb-	4.gg
.	.	8ccc	8aa
4r	4r	4ddd	4bb-
=20	=20	=20	=20
8c	8c	2gg	2ee
8B-	8B-	.	.
8c	8c	.	.
8d	8d	.	.
8c	8c	4r	4r
8B-	8B-	.	.
=21	=21	=21	=21
2A	2A	4.ff	4.aa
.	.	8gg	8bb-
4r	4r	4aa	4ccc
=22	=22	=22	=22
2d	2d	4.ff	4.bb-
.	.	8gg	8ccc
4c	4c	4ee	4aa
=23	=23	=23	=23
4.B-	4.B-	4.dd	4.gg
8c	8c	8ee	8aa
4A	4A	4cc	4ff
=24	=24	=24	=24
2G	2G	2ee	2bb-
4F	4F	[4ff	[4aa
=25	=25	=25	=25
4BB-	4BB-	4ff]	4aa]
2C	2C	4.ff	2gg
.	.	8ee	.
=26	=26	=26	=26
4.F	4.F	2.ff	2.ff
8G	8G	.	.
4E	4E	.	.
=27	=27	=27	=27
2D	2D	4.ff	4.bb-
.	.	8gg	8ccc
4C	4C	4ee	4aa
=28	=28	=28	=28
2BB-	2BB-	4.dd	4.gg
.	.	8ee	8aa
4AA	4AA	4cc	4ff
=29	=29	=29	=29
2GG	2GG	2ee	2bb-
[4FF	[4FF	[4ff	[4aa
=30	=30	=30	=30
4FF]	4FF]	4ff]	4aa]
2C	2C	4.ff	2gg
.	.	8ee	.
=31	=31	=31	=31
2.FF	2.FF	2.ff	2.ff
=32	=32	=32	=32
8F	8F	4.aa	4.ccc
8E	8E	.	.
8F	8F	.	.
8G	8G	8gg	8bb-
8A	8A	4ff	4aa
8B	8B	.	.
=33	=33	=33	=33
4c	8c	2ee	2gg
.	8B	.	.
8C	8c	.	.
8D	8d	.	.
8E	8e	4r	4r
8C#	8c#	.	.
=34	=34	=34	=34
4D	8d	4.ff	4.aa
.	8A	.	.
8D	8D	.	.
8E	8E	8ee	8gg
8F	8F	4dd	4ff
8G	8G	.	.
=35	=35	=35	=35
4A	8A	2cc#	2ee
.	8G	.	.
8A	8A	.	.
8B	8B	.	.
8c#	8c#	4r	4r
8A	8A	.	.
=36	=36	=36	=36
2d	8d	2ff	4bb-
.	8c	.	.
.	8d	.	2aa
.	8e	.	.
4c	8c	4ee	.
.	8d	.	.
=37	=37	=37	=37
2B-	8B-	2dd	4gg
.	8A	.	.
.	8B-	.	2ff
.	8c	.	.
4A	8A	4cc	.
.	8B-	.	.
=38	=38	=38	=38
2G	8G	2b-	4ee-
.	8F	.	.
.	8G	.	2dd
.	8A	.	.
4F	8F	4a	.
.	8G	.	.
=39	=39	=39	=39
2E	2E	2g	2cc#
4D	4D	4f	[4dd
=40	=40	=40	=40
4G	4G	4bb-	4dd]
4A	4A	2ee	4.dd
4AA	4AA	.	.
.	.	.	8cc#
=41	=41	=41	=41
2D	2D	2dd	2dd
[4C	[4C	[4ee-	4gg
=42	=42	=42	=42
4C]	4C]	4ee-]	4cc
2G	2G	2dd	2b
=43	=43	=43	=43
4C	4C	2.cc	4cc
4A	4A	.	[2ff
4F	4F	.	.
=44	=44	=44	=44
4B-	4B-	[2.gg	8ff]
.	.	.	8gg
4c	4c	.	8ee
.	.	.	8dd
4C	4C	.	8cc
.	.	.	8b-
=45	=45	=45	=45
2.F	2.F	8gg]	8a
.	.	8aa	8f
.	.	8ff	[2aa
.	.	8ee	.
.	.	8dd	.
.	.	8cc	.
=46	=46	=46	=46
2.G	2.G	8b-	8aa]
.	.	8g	8bb-
.	.	[2bb-	8gg
.	.	.	8ff
.	.	.	8ee
.	.	.	8dd
=47	=47	=47	=47
2.A	2.A	8bb-]	8cc
.	.	8ccc	8a
.	.	8aa	[2ccc
.	.	8gg	.
.	.	8ff	.
.	.	8ee	.
=48	=48	=48	=48
2.B-	2.B-	4.dd	8ccc]
.	.	.	8ff
.	.	.	8bb-
.	.	8ff	8aa
.	.	8bb-	8gg
.	.	8aa	8ff
=49	=49	=49	=49
2c	2c	4.gg	8ee
.	.	.	8gg
.	.	.	8ee
.	.	8ee	8cc
4AA	4AA	8cc	[4ff
.	.	8a	.
=50	=50	=50	=50
2BB-	2BB-	4.dd	8ff]
.	.	.	8ff
.	.	.	8dd
.	.	8dd	8b-
4BB-	4BB-	8b-	[4gg
.	.	8g	.
=51	=51	=51	=51
2C	2C	4.ee	8gg]
.	.	.	8gg
.	.	.	8ee
.	.	8ee	8cc
4C	4C	8cc	[4aa
.	.	8a	.
=52	=52	=52	=52
2D	2D	4.ff	8aa]
.	.	.	8aa
.	.	.	8ff
.	.	8ff	8dd
4GG	4GG	8dd	[4bb-
.	.	8gg	.
=53	=53	=53	=53
2C	2C	4.ee	8bb-]
.	.	.	8gg
.	.	.	8ccc
.	.	8cc	8ee
[4BB-	[4BB-	8dd	8ff
.	.	8ee	8gg
=54	=54	=54	=54
4BB-]	4BB-]	4ff	8aa
.	.	.	8bb-
2C	2C	4.ff	2gg
.	.	8ee	.
=55	=55	=55	=55
2FF	2FF	[2.ff	2ff
4AA	4AA	.	4ccc
=56	=56	=56	=56
4BB-	4BB-	2.ff_	4dd
2C	2C	.	2ee
=57	=57	=57	=57
2D	2D	2ff]	[2.ff
4A	4A	4ccc	.
=58	=58	=58	=58
4B-	4B-	4dd	2.ff_
2c	2c	2ee	.
=59	=59	=59	=59
2d	2d	[2.ff	2ff]
4A	4A	.	4ccc
=60	=60	=60	=60
4B-	4B-	4ff]	8bb-
.	.	.	8aa
2c	2c	4.ff	2gg
.	.	8ee	.
=61	=61	=61	=61
2.F	2.F	2.ff	2.ff
==	==	==	==
*-	*-	*-	*-
!!!RWG: This file only contains pitch and duration data.
!!!RWG: Transposing instruments are not transposed.
!!!RWG: Durations of rests and tied notes may be interpreted.
!!!RWG: Key is interpreted using the Humdrum key tool.
!!!SCA: 
!!!YOR: Chrysander Edition
!!!AGN: chamber
!!!AFT: stage1
!!!ENC: F. Bennion
!!!END: 1997/04/15
!!!AST: baroque
!!!YEC: Copyright 1994, Center for Computer Assisted Research in the Humanities
!!!YEM: Rights to all derivative electronic formats reserved.
!!!YEM: Refer to licensing agreement for further details.
!!!YEN: United States of America
!!!EED: W.B. Hewlett
!!!KEY: 2120854353
!!!EMD: Converted from MuseData to Humdrum Aug 9, 1999, by Bret Aarden using muse2kern.
!!!VTS: 783828987
